X:1
T:Title
%%score ( 1 2 3 ) ( 4 5 )
L:1/8
Q:1/4=110
M:4/4
K:G
V:1 treble nm="Grand Piano, Unnamed-000"
V:2 treble 
V:3 treble 
V:4 bass nm="Choir Pad, Dix, 77.77.77"
V:5 bass 
V:1
 [DG]2 FG [DA]2 [DG]2 | [Cc]2 [Dc]2 [DB]4 | E2 [DF]2 [DG]2 [CE]2 | [B,D]2 [A,D]2 [B,D]4 | %4
w: By~Conrad~Kocher,~1838 * * * *||||
 [DG]2 FG [DA]2 [DG]2 | [Cc]2 [Dc]2 [DB]4 | E2 [DF]2 [DG]2 [CE]2 | [B,D]2 [A,D]2 [B,D]4 | %8
w: ||||
 [DB]2 [DA]2 [DG]2 [DB]2 | d3 c [DB]4 | E2 [DF]2 [DG]2 [Cc]2 | z2 A2 z4 | z8 |] %13
w: |||||
V:2
 z2 D2 z4 | x8 | x8 | x8 | z2 D2 z4 | x8 | x8 | x8 | x8 | D2 D2 z4 | x8 | B2 z C [B,G]4- | %12
 [B,G]4 z4 |] %13
V:3
 x8 | x8 | x8 | x8 | x8 | x8 | x8 | x8 | x8 | x8 | x8 | D4 z4 | x8 |] %13
V:4
 [G,B,]2 [A,C][G,B,] [F,A,]2 [G,B,]2 | [E,G,]2 [F,A,]2 G,4 | [C,G,]2 [C,A,]2 [B,,G,]2 [C,G,]2 | %3
 [D,G,]2 [D,F,]2 [G,,G,]4 | [G,B,]2 [A,C][G,B,] [F,A,]2 [G,B,]2 | [E,G,]2 [F,A,]2 G,4 | %6
 [C,G,]2 [C,A,]2 [B,,G,]2 [C,G,]2 | [D,G,]2 [D,F,]2 [G,,G,]4 | z2 .D2 z4 | [F,A,]2 [D,F,]2 G,4 | %10
 [C,G,]2 [C,A,]2 [B,,G,]2 [E,G,]2 | [D,G,]2 [D,F,]2 [G,,G,]4- | [G,,G,]4 z4 |] %13
V:5
 x8 | x8 | x8 | x8 | x8 | x8 | x8 | x8 | G,2 F,-[F,C] [G,B,]2 G,2 | x8 | x8 | x8 | x8 |] %13

